lib/icons/chart.svg

<svg width="16" height="17" viewBox="0 0 16 17" fill="none" xmlns="http://www.w3.org/2000/svg">
<path fill-rule="evenodd" clip-rule="evenodd" d="M1 1.49854C1 1.22239 0.776142 0.998535 0.5 0.998535C0.223858 0.998535 0 1.22239 0 1.49854V16.1968C0 16.6251 0.340454 16.9992 0.793063 16.9992H15.5006C15.7768 16.9992 16.0006 16.7753 16.0006 16.4992C16.0006 16.223 15.7768 15.9992 15.5006 15.9992H1V1.49854ZM15.4705 2.17727C15.5738 1.92118 15.45 1.62982 15.1939 1.5265C14.9378 1.42317 14.6465 1.547 14.5432 1.80308L11.7231 8.79219L6.30057 6.47785C6.05354 6.37241 5.76735 6.48098 5.6524 6.72373L2.68489 12.9906C2.56671 13.2402 2.67322 13.5383 2.9228 13.6565C3.17238 13.7747 3.4705 13.6682 3.58868 13.4186L6.35036 7.58637L11.7996 9.91213C11.9232 9.96486 12.0627 9.96566 12.1869 9.91435C12.311 9.86304 12.4093 9.76393 12.4596 9.63936L15.4705 2.17727Z" fill="#14C393"/>
</svg>

<svg width="16" height="17" fill="none" xmlns="http://www.w3.org/2000/svg"><path fill-rule="evenodd" clip-rule="evenodd" d="M1 1.499a.5.5 0 1 0-1 0v14.698c0 .428.34.802.793.802h14.708a.5.5 0 1 0 0-1H1V1.5Zm14.47.678a.5.5 0 0 0-.927-.374l-2.82 6.99-5.422-2.315a.5.5 0 0 0-.649.246L2.685 12.99a.5.5 0 0 0 .904.428L6.35 7.586l5.45 2.326a.5.5 0 0 0 .66-.273l3.01-7.462Z" fill="#14C393"/></svg>
